X:1
T:Sonata in C Major
T:Ze77en
%%score { ( 1 4 ) | ( 2 3 ) }
L:1/8
Q:1/4=120
M:4/4
K:C
V:1 treble nm="Piano" snm="Pno."
V:4 treble 
V:2 bass 
V:3 bass 
V:1
"^Allegretto" G |: c3 (3d/e/f/ g2 z G | d3 (3e/f/g/ a2 z a | .f2 .d2 .B2 .G2 | %4
 TF7/2 E/4F/4 E2 z G | C3 (3D/E/F/ G2 z G | B,3 (3D/E/F/ G2 z G | A,3 (3E/F/G/ A2 A2 | %8
 TC7/2 B,/4C/4 B,2 G,>G, | C3 G, CG,CE | F3 (3E/D/C/ B,2 z G |{/B} AGFE{/F} EDCB, | CEGG G,2 z G | %13
{/B} AGFE{/F} EDCB, | CEGG, C2 z G |{/B} AGFE{/F} EDCB, | CEGG z2 z G |{/B} AGFE{/d} cBAG | %18
 ^FGFG =FEDC | TD7/2 ^C/4D/4 F2 B,2 | TD7/2 ^C/4D/4 F2 B,2 | TD7/2 ^C/4D/4 ^F2 A,2 | %22
 TC7/2 B,/4C/4 D2 ^F2 | G2 z2 [GB][GB] [GB]2 | z4 [^FA][DFd][EGd][EA^c] | d3 c Bg (3d/e/d/c | %26
 B3 A Ge (3B/c/B/A | G3 ^F EcBA | TG7/2 ^F/4G/4 F2 z2 | d3 c Bg (3d/e/d/c | B3 A Ge (3B/c/B/A | %31
 G3 ^F z GAB | cAG^F EcBA | T^G7/2 ^F/4G/4 BA z2 | TB7/2 A/4B/4 dc z2 | T^c7/2 B/4c/4 edd=c | %36
 cBBA G/D/E/^F/ G/A/B/c/ | d g2 (3f/e/d/ .c2 .B2 :| c3 (3d/e/f/ g(3e/f/e/ dc | %39
 d3 (3e/f/g/ a(3f/g/f/ ed | .e2 .^c2 .B2 .A2 | TG7/2 ^F/4G/4 F2 z A | D(3E/^F/G/ AA ^C(3E/F/G/ AA | %43
 B,(3^F/G/A/ BB A,(3E/F/G/ AA | [GB]4 [^FA]4 | ^c4 d=cBA | Gd (3^c/d/c/B Ad (3c/d/c/B | %47
 [^FA][EG][DF][^CE] Dddd | Gd (3^c/d/c/B Ad (3c/d/c/B | T^A7/2 ^G/4A/4 ^cBB=A | %50
 A^GG^F E/e/D/d/ C/c/B,/B/ | [A,A](3B/c/d/ ee ^G(3B/c/d/ ee | F(3c/d/e/ ff E(3B/c/d/ ee | %53
 [df]4 [ce]4 | [Bd]4 .[Ec]2 .[DB]2 | c3 (3d/e/f/ g2 z G | d3 (3e/f/g/ a2 z a | %57
 f/d/g/f/ b/g/d'/b/ f'/d'/b/g/ f/d/B/G/ | TF7/2 E/4F/4 E2 z G | C3 (3D/E/F/ G2 z G | %60
 B,3 (3D/E/F/ G2 z G | A,3 (3E/F/G/ A2 A2 | TC7/2 B,/4C/4 B,2 z2 | C3 B, A,CDE | %64
 F3 (3E/D/C/ B,2 z G |{/B} AGFE{/F} EDCB, | CEGG G,2 z G |{/B} AGFE{/F} EDCB, | CEGG, C2 z G | %69
{/B} AGFE{/F} EDCB, | CEGG z2 z G |{/B} AGFE{/d} cBAG | ^FGFG =FEDC | TD7/2 ^C/4D/4 F2 B,2 | %74
 C4 z2 ^C2 | D4 z2 [^D^FA]2 | [EG]2 [DF]2 [CE]2 [B,D]2 | C2 z2 [CE][CE] [CE]2 | %78
 z4 [B,D][G,B,G][A,CG][A,D^F] | G3 F Ec (3G/A/G/F | E3 D CA (3E/F/E/D | C3 B, A,FED | %82
 TC7/2 B,/4C/4 B,2 z2 | G3 F Ec (3e/f/e/d | ^c4 da (3f/g/f/e | ^d4 eb (3g/a/g/^f | f2 f2 feed | %87
 dccB B A2 G | ^FdcB B A2 G | ^F/d/^c/d/ e/d/=c/B/ BAeG | ^F(3G/B/d/ g(3g/a/b/ .c'2 .[Bb]2 | %91
 [cc']3 (3f/e/d/ cc' (3c'/d'/c'/b | [cc']3 (3g/f/e/ db (3c'/d'/c'/b | %93
 [cc']3 (3f/e/d/ cc' (3c'/d'/c'/b | [cc']3 (3g/f/e/ db (3c'/d'/c'/b | [cc']3 (3A/B/c/ d3 (3B/c/d/ | %96
 e3 (3c/d/e/ f3 (3d/e/f/ | g3 (3e/f/g/ a3 (3f/g/a/ | b3 (3g/a/b/ c'3 (3d/e/f/ | %99
 [eg]2 [df]2 [ce]2 [Bd]2 | [eg]2 [df]2 [ce]2 [Bd]2 | c2 _B2 [FA]4 | [GB]4 [Ec]4 | [G_B]4 [FA]4 | %104
 [GB]4 [Ec]4 | c3 _B A2 z2 | A3 G z _BAB | G2 [Fd]2 [Gc]2 [CE]2 | G2 [Fd]2 [A^c]2 [EA]2 | %109
 [FA]2 z4 [EA]2 | [FA]2 z4 [EA]2 | [FA]8 | [EG]2 [DF]2 [CE]2 [B,D]2 | C3 (3A,/B,/C/ D3 (3B,/C/D/ | %114
 E3 (3C/D/E/ F3 (3D/E/F/ | G3 (3E/F/G/ A3 (3F/G/A/ | B3 (3G/A/B/ c3 (3D/E/F/ | %117
 [EG]2 [DF]2 [CE]2 [B,D]2 | C2 [B,DG]2 [CEc]2 z2 | z2 [B,DG]2 [CEc]2 z2 | %120
 z2 [B,DG]2 [CEc](3B/c/d/ .e.d | e(3G/A/B/ .c.B .c2 [egc']2 | [Ec]2 [Ec]2 [Ec]4- | [Ec]2 z2 z4 |] %124
V:2
 z |: z [E,C] [E,C]2 z [E,C] [D,B,]2 | z [D,B,] [D,B,]2 z [D,A,][D,F,][D,F,] | %3
 .[D,G,]2 .[D,F,]2 .[D,G,]2 .[D,F,]2 | [G,-B,]4 [G,C]2 z2 | z G,E,G, D,G,C,G, | %6
 B,,G,D,G, G,,G,B,,G, | A,,E,C,E, F,,F,C,F, | ^F,,^F,F,,F, [G,,G,]2 z2 | %9
 z [C,E,] [C,E,]2 z [C,E,] [C,E,]2 | z [D,G,] [D,G,]2 z [D,G,][D,G,][D,G,] | [F,A,]4 [E,G,]4 | %12
 G,E,D,C, B,,D,G,,G, | [F,A,] [F,A,]2 [F,A,] [E,G,] [E,G,]2 [E,G,] | G,E,D,B,, C,E,G,,G, | %15
 F,,/G,,/A,,/B,,/ C,/D,/E,/F,/ C,,/D,,/E,,/F,,/ G,,/A,,/B,,/C,/ | %16
 F,,/G,,/A,,/B,,/ C,/D,/E,/F,/ ^F,/G,/=F,/G,/ D,/G,/E,/G,/ | %17
 F,/G,/E,/G,/ D,/G,/C,/G,/ E,/G,/D,/G,/ C,/G,/B,,/G,/ | %18
 D,,/D,/D,,/D,/ D,,/D,/D,,/D,/ D,,/D,/E,,/E,/ F,,/F,/^F,,/^F,/ | [G,,G,]2 z2 [D,G,]2 [D,G,]2 | %20
 z4 [D,^G,]2 [D,G,]2 | z4 [D,A,]2 [D,^F,]2 | z4 [D,^F,]2 [D,A,]2 | [G,B,][G,B,] [G,B,]2 z4 | %24
 [^F,A,][F,D] [F,D]2 z4 |[K:treble] z [D^F][EG][FA] .G2 z2 | z [B,D][CE][D^F] .E2 z2 | %27
[K:bass] z [G,B,][A,C][B,D] .C2 C2 | .^C2 C2 D2 z2 |[K:treble] z [D^F][EG][FA] .G2 z2 | %30
 z [B,D][CE][D^F] .E2 z2 | z [G,B,][A,C][B,^D] E3 =D | C3 [B,D] C2[K:bass] C,2 | z2 E,4 z2 | %34
 z2 G,4 z2 | z2 A,6- | [^F,A,]4 .G,2 .[G,B,]2 | .[G,B,D]2 .[G,B,DF]2 .[G,CEG]2 .[G,B,DG]2 :| %38
 z [E,C] [E,C]2 z [E,C] [D,B,]2 | z [D,B,] [D,B,]2 z [D,A,][D,A,][D,A,] | %40
 .[C,A,]2 .[^C,A,]2 .[D,A,]2 .[^D,A,]2 | z2 ^C2 D2 z2 | z A,^F,A, E,A,D,A, | ^C,A,B,,A, A,,A,C,A, | %44
 z (3D,/E,/^F,/ G,G, z (3^C,/D,/E,/ F,F, | z (3E,/^F,/G,/ A,[E,^C] [D,D]2 z2 | [G,B,]4 [^F,A,]4 | %47
 DG,A,A,, D,^F,A,D | [G,B,]4 [^F,A,]4 | z2 ^F,6- | [^D,F,]4 E,2 E,,2 | z E,C,E, B,,E,A,,E, | %52
 ^G,,E,F,,E, E,,E,G,,E, | z (3C,/D,/E,/ F,F, z (3D,/E,/F,/ G,G, | %54
 z (3D,,/E,,/F,,/ G,,G,, .C,2 .G,,2 | z [E,C] [E,C]2 z [E,C] [D,B,]2 | %56
 z [D,B,] [D,B,]2 z [D,A,][D,F,][D,F,] | .[D,G,]2 .[D,F,]2 .[D,G,]2 .[D,F,]2 | [G,-B,]4 [G,C]2 z2 | %59
 z G,E,G, D,G,C,G, | B,,G,D,G, G,,G,B,,G, | A,,E,C,E, F,,F,C,F, | ^F,,^F,F,,F, G,2 z2 | %63
 z [C,E,][D,F,][E,G,] .F,2 z2 | z [B,,D,][C,E,][D,F,] [D,G,]2 G,,2 | [F,A,]4 [E,G,]4 | %66
 G,E,D,C, B,,D,G,,G, | [F,A,] [F,A,]2 [F,A,] [E,G,] [E,G,]2 [E,G,] | G,E,D,B,, C,E,G,,G, | %69
 F,,/G,,/A,,/B,,/ C,/D,/E,/F,/ C,,/D,,/E,,/F,,/ G,,/A,,/B,,/C,/ | %70
 F,,/G,,/A,,/B,,/ C,/D,/E,/F,/ ^F,/G,/=F,/G,/ D,/G,/E,/G,/ | %71
 F,/G,/E,/G,/ D,/G,/C,/G,/ E,/G,/D,/G,/ C,/G,/B,,/G,/ | %72
 D,,/D,/D,,/D,/ D,,/D,/D,,/D,/ D,,/D,/E,,/E,/ F,,/F,/^F,,/^F,/ | [G,,G,]2 z2 [D,G,]2 [D,G,]2 | %74
 [C,E,]G,,/C,/ E,C,/E,/ G,2 [A,,A,]2 | [D,F,]A,,/D,/ F,D,/F,/ A,2 [B,,B,]2 | [C,C]2 F,2 G,2 G,,2 | %77
 [C,E,][C,E,] [C,E,]2 z4 | [B,,D,][B,,G,] [B,,G,]2 z4 | z [G,B,][A,C][B,D] .C2 z2 | %80
 z [E,G,][F,A,][G,B,] .A,2 z2 | z [C,E,][D,F,][E,G,] .F,2 F,2 | .^F,2 F,2 G,2 z2 | %83
 z [G,B,][A,C][B,D] .C2 z2 |[K:treble] z [G_B][FA][EG] .[DF]2 z2 | z [Ac][GB][^FA] .[EG]2 z2 | %86
 z [F_A][EG][DF] [CE]4 | [CE]4 E4 | .D2 z2 E4 | .D2 z2 E4 | .D2 .[G,B,DF]2 .[G,CEG]2 .[G,B,DG]2 | %91
 z [G,CE] [G,CE]2 z [A,CF] [A,CF]2 | z [G,CE] [G,CE]2 z [G,B,D] [G,B,D]2 | %93
 z [G,CE] [G,CE]2 z [A,CF] [A,CF]2 | z [G,CE] [G,CE]2 z [G,B,D] [G,B,D]2 | %95
 z (3C/D/E/ F3 (3D/E/F/ G2- | G(3E/F/G/ A3 (3F/G/A/ B2- | B(3G/A/B/ c3 (3A/B/c/ d2- | %98
 d(3B/c/d/ e3 (3c/d/e/ f(3B,/C/D/ | E(3C/D/E/ F(3D/E/F/ G(3D/E/F/ G[K:bass](3G,/A,/B,/ | %100
 C[E,G,C][F,A,C][F,A,C] [E,G,C][E,G,C][D,G,B,][D,G,B,] | C,CCC CCCC | CCCC CCCC | C,CCC CCCC | %104
 CCCC CCCC | C,,C,C,C, C,C,C,C, | C,C,C,C, C,C,C,C, | _B,,B,,B,,B,, C,C,C,C, | %108
 _B,,B,,B,,B,, E,F,G,E, | A,A,A,A, A,A,A,A, | A,A,A,A, A,A,A,A, | z E,,F,,G,, A,,B,,C,D, | %112
 E,2 F,2 G,2 G,,2 | z (3C,/D,/E,/ F,3 (3D,/E,/F,/ G,2- | G,(3E,/F,/G,/ A,3 (3F,/G,/A,/ B,2- | %115
 B,(3G,/A,/B,/ C3 (3A,/B,/C/ D2- | D(3B,/C/D/ E3 (3C/D/E/ F(3B,,/C,/D,/ | %117
 E,(3C,/D,/E,/ F,(3D,/E,/F,/ G,(3D,/E,/F,/ G,(3G,,/A,,/B,,/ | C,2 D,2 E,2 z (3B,,/C,/D,/ | %119
 E,2 F,2 G,2 z (3E,,/F,,/G,,/ | A,,2 B,,2 C,2 .E,.F, | .G,2 .[C,E,G,].[B,,D,G,] .[C,E,G,]2 [C,C]2 | %122
 [G,,G,]2 [E,,E,]2 [C,,C,]4- | [C,,C,]2 z2 z4 |] %124
V:3
 x |: x8 | x8 | x8 | D,2 F,2 E,2 z2 | x8 | x8 | x8 | x8 | x8 | x8 | z2 C,2 z2 C,2 | x8 | %13
 z2 C,2 z2 C,2 | x8 | x8 | x8 | x8 | x8 | x8 | x8 | x8 | x8 | x8 | x8 |[K:treble] x8 | x8 | %27
[K:bass] x8 | x4 z E,^F,D, |[K:treble] x8 | x8 | x8 | x6[K:bass] x2 | [B,,D,]4 [A,,C,]2 z2 | %34
 [D,F,]4 [C,E,]2 z2 | [E,G,]4 F,4 | x8 | x8 :| x8 | x8 | x8 | [E,A,-]4 [^F,A,]2 z2 | x8 | x8 | x8 | %45
 x8 | z2 D,2 z2 D,2 | x8 | z2 D,2 z2 D,2 | [^C,E,]4 D,4 | x8 | x8 | x8 | x8 | x8 | x8 | x8 | x8 | %58
 D,2 F,2 E,2 z2 | x8 | x8 | x8 | x4 G,,A,,B,,G,, | x8 | x8 | z2 C,2 z2 C,2 | x8 | z2 C,2 z2 C,2 | %68
 x8 | x8 | x8 | x8 | x8 | x8 | x8 | x8 | x8 | x8 | x8 | x8 | x8 | x8 | x4 z A,,B,,G,, | x8 | %84
[K:treble] x8 | x8 | x8 | x4 C2 ^C2 | x4 C2 ^C2 | x4 C2 ^C2 | x8 | x8 | x8 | x8 | x8 | x8 | x8 | %97
 x8 | x8 | x7[K:bass] x | x8 | x8 | x8 | x8 | x8 | x8 | x8 | x8 | x8 | z2 [E,,A,,]2 [F,,A,,]2 z2 | %110
 z2 [E,,A,,]2 [F,,A,,]2 z2 | x8 | x8 | x8 | x8 | x8 | x8 | x8 | x8 | x8 | x8 | x8 | x8 | x8 |] %124
V:4
 x |: x8 | x8 | x8 | x8 | x8 | x8 | x8 | x8 | x8 | x8 | x8 | x8 | x8 | x8 | x8 | x4 B,4 | C4 C4 | %18
 D4 x4 | x8 | x8 | x8 | x8 | x8 | x8 | x8 | x8 | x8 | x8 | x8 | x8 | x8 | x8 | x8 | x8 | x8 | x8 | %37
 x8 :| x8 | x8 | x8 | x8 | x8 | x8 | x8 | A2 G2 ^F2 z2 | x8 | x8 | x8 | x8 | x8 | x8 | x8 | x8 | %54
 x8 | x8 | x8 | x8 | x8 | x8 | x8 | x8 | x8 | x8 | x8 | x8 | x8 | x8 | x8 | x8 | x4 B,4 | C4 C4 | %72
 D4 x4 | x8 | x8 | x8 | x8 | x8 | x8 | x8 | x8 | x8 | x8 | x8 | x8 | x8 | x8 | x8 | x8 | x8 | x8 | %91
 x8 | x8 | x8 | x8 | x8 | x8 | x8 | x8 | x8 | x8 | x8 | x8 | x8 | x8 | z EFG F2 z2 | z CDE F2 ^F2 | %107
 x8 | x8 | x8 | x8 | A,4 B,4 | C2 x6 | x8 | x8 | x8 | x8 | x8 | x8 | x8 | x8 | x8 | x8 | x8 |] %124

